!!!OTL: 1734. Schlendrian.
!!!ODT: 1880
!!!ARE: Europa, Mitteleuropa, Deutschland, Hessen, Lahnkreis, Hennethal
!!!SCT: E1734A
!!!TXL: @@DE
!!!YEM: Copyright 1995, estate of Helmut Schaffrath.
**kern	**text
*ICvox	*
*M2/4	*
*k[]	*
*C:	*
!LO:TX:a:t=Gemächlich.	!
!LO:TX:a:t=Aus Hennethal im Unterlahnkreis. 1880.	!
{8c	Jetʒt
=1	=1
8g	führ
8g	ich
8a	mei-
8g	-nen
=2	=2
8g	Schlen-
8f	-der-
8f}	-gang
{8d	und
=3	=3
8f	hab
8f	mein'
8g	Kopf
8f	für
=4	=4
4e	mich!
8r}	.
{8c	Ja
=5	=5
8g	wun-
8g	-der-
8a	-lich
8g	die
=6	=6
8g	Leu-
8f	-te
8f}	ſein,
{8d	ja
=7	=7
8f	wun-
8f	-der-
8g	-lich
8f	bin
=8	=8
4e	ich
8r}	.
{8c	Bau
=9	=9
4.e	ich,
8f	bau
=10	=10
4.g}	ich
{8g	für
=11	=11
8a	mein
8b	Plai-
8cc	-ſir
8a	ein
=12	=12
8a	Ʒim-
8g	-mer,
8r}	.
{8g	wer
=13	=13
8g	hat
8f	ſich
8f	dann,
8f	wer
=14	=14
8f	hat
8e	ſich
8e}	dann
{8e	um
=15	=15
8d	mich
8g	was
8.g	ʒu
16f	be-
=16	=16
8f	-küm-
8e	-mern?
8r}	.
==	==
!!!AGN: Scherz - Lied
!!!ONB: ESAC (Essen Associative Code) Database: ERK3
!!!AMT: simple duple
!!!AIN: vox
!!!EED: Helmut Schaffrath
!!!EEV: 1.0
!!!GTL: Scherz-, Spiel- und Spottlieder.
!!!URL-scan: https://rosdok.uni-rostock.de/mcrviewer/recordIdentifier/rosdok_ppn745177999/iview2/phys_0527.iview2?x=-449.8344612962892&y=1609.3775794850662&scale=0.47549036216460333&rotation=0&layout=singlePageLayout
!!!ENC: Anna Maria Matuszewska
!!!EEV: 2025/08/01
*-	*-
